build/img/icon-boot.svg

<svg width="24" height="22" viewBox="0 0 24 22" fill="none" xmlns="http://www.w3.org/2000/svg">
<path d="M23.6583 14.6155C24.404 12.2804 23.7904 9.63006 23.1385 7.79353C23.1342 7.72248 23.1123 7.65361 23.0746 7.59326C22.853 6.99671 22.6484 6.50669 22.4737 6.15302C22.7953 6.02497 23.0075 5.71508 23.0106 5.36898V1.8195C23.0106 1.34881 22.6291 0.967282 22.1584 0.967282H11.6889C11.4536 0.966856 11.2625 1.15727 11.2621 1.39264C11.2621 1.40143 11.2624 1.41022 11.2628 1.41896C11.4077 3.9756 11.2202 5.70986 10.6791 6.93279C10.6683 6.94494 10.6583 6.95777 10.6492 6.97114C10.6476 6.9924 10.6476 7.01381 10.6492 7.03506C10.4427 7.48024 10.1633 7.88775 9.82259 8.24095L9.78424 8.26651C9.78424 8.26651 9.78424 8.26651 9.78424 8.29634C9.28468 8.77278 8.70853 9.16171 8.07981 9.44683C6.98439 9.93286 5.86021 10.3512 4.71355 10.6996L4.49624 10.772C0.512129 12.093 -0.00772321 14.4877 0.000798953 15.6893C-0.000266318 15.7064 -0.000266318 15.7234 0.000798953 15.7404V18.7829C0.00143811 18.9309 0.07883 19.068 0.205331 19.145C1.18176 19.7391 2.23574 20.1951 3.33722 20.5001C3.56375 20.5638 3.79907 20.4318 3.86278 20.2052C3.87476 20.1625 3.88003 20.1182 3.87838 20.074V19.976H4.50476V20.4021C4.50204 20.6131 4.65433 20.7944 4.86269 20.8282C5.23341 20.8878 5.60412 20.9347 5.96631 20.9645C6.08498 20.9745 6.20243 20.9343 6.29015 20.8537C6.37783 20.7724 6.42731 20.658 6.42651 20.5384V20.0015H7.05289V20.6066C7.05289 20.8419 7.24368 21.0327 7.479 21.0327C7.83693 21.0327 8.19486 21.0327 8.57835 20.9816C8.8003 20.9638 8.97107 20.7781 8.97037 20.5555V20.0015H9.59675V20.3765C9.59372 20.6118 9.782 20.8051 10.0173 20.8081C10.042 20.8084 10.0666 20.8066 10.091 20.8026C10.8732 20.6828 11.6442 20.499 12.3963 20.2529L12.4645 20.2231C15.4472 18.5187 17.3391 19.9206 17.4158 19.9802C17.4902 20.038 17.5816 20.0694 17.6758 20.0697H18.2041C18.4395 20.0697 18.6302 19.8789 18.6302 19.6436V18.9235H19.2396V19.6351C19.2396 19.8704 19.4304 20.0612 19.6657 20.0612H21.0378C21.2731 20.0612 21.4639 19.8704 21.4639 19.6351V18.9235H22.0945V19.6351C22.0945 19.8704 22.2853 20.0612 22.5206 20.0612H23.5731C23.8084 20.0612 23.9992 19.8704 23.9992 19.6351V15.0416C24.0034 14.8359 23.8599 14.6566 23.6583 14.6155ZM13.5468 1.82802H13.8962H22.1371V5.35619H13.5468V1.82802ZM8.1906 10.3246L8.19486 10.3502C8.54416 10.6338 8.86651 10.949 9.15786 11.2919C9.08058 11.4204 9.04073 11.568 9.04281 11.718C9.03988 12.1675 9.40191 12.5342 9.85135 12.5371C10.3008 12.5401 10.6676 12.178 10.6705 11.7286C10.6733 11.3051 10.3509 10.9504 9.92912 10.9126C9.6596 10.5452 9.35254 10.2067 9.01298 9.90277C9.39377 9.68604 9.75202 9.43197 10.0825 9.14429C10.4958 9.532 10.8803 9.94927 11.233 10.3928C11.0848 10.8171 11.3086 11.2813 11.7329 11.4296C12.1572 11.5778 12.6214 11.354 12.7697 10.9297C12.9179 10.5053 12.6941 10.0412 12.2698 9.89291C12.1817 9.86213 12.0891 9.84673 11.9957 9.84737H11.8935C11.5197 9.37684 11.1125 8.93396 10.6748 8.52218C10.8779 8.2721 11.0576 8.00398 11.2117 7.72109C11.8714 8.06448 12.5089 8.44873 13.1207 8.87159C13.1165 9.32576 13.4813 9.69733 13.9354 9.70154C14.3896 9.70574 14.7612 9.34094 14.7654 8.88677C14.7696 8.43259 14.4048 8.06102 13.9506 8.05681C13.8209 8.05559 13.6927 8.0851 13.5766 8.14294C12.9327 7.70703 12.2624 7.31144 11.5696 6.95836C12.0341 5.72265 12.2344 4.08213 12.1406 1.84506H12.6988V5.37324C12.6988 5.84393 13.0803 6.22545 13.551 6.22545H21.5363C21.6471 6.45129 21.8346 6.84331 22.0391 7.35464H21.8644C19.2758 7.37334 17.1925 9.48694 17.2112 12.0755C17.2218 13.5465 17.9224 14.9272 19.1032 15.8044C15.656 16.712 10.4703 17.79 6.10693 17.5088C6.91227 14.2917 5.94927 12.3103 5.32289 11.441C6.2983 11.1211 7.25561 10.7484 8.1906 10.3246ZM4.46641 11.6839C4.92661 12.2251 6.12823 14.0445 5.24619 17.3895C3.71082 17.2688 2.2196 16.8182 0.874321 16.0685C0.859034 15.9712 0.849074 15.873 0.844493 15.7745V15.7447C0.810404 14.8371 1.15129 12.8727 4.46641 11.6839ZM22.9467 19.209V18.4974C22.9467 18.262 22.7559 18.0713 22.5206 18.0713H21.042C20.8067 18.0713 20.6159 18.262 20.6159 18.4974V19.209H20.0918V18.4974C20.0918 18.262 19.901 18.0713 19.6657 18.0713H18.1956C17.9603 18.0713 17.7695 18.262 17.7695 18.4974V19.1919C17.19 18.8297 15.0722 17.7772 12.0682 19.4561C11.5337 19.6325 10.9886 19.7748 10.4362 19.8822V19.5882C10.4362 19.3529 10.2454 19.1621 10.0101 19.1621H8.54C8.30469 19.1621 8.1139 19.3529 8.1139 19.5882V20.172H7.89658V19.5754C7.89658 19.3401 7.70579 19.1493 7.47047 19.1493H5.99188C5.75656 19.1493 5.56577 19.3401 5.56577 19.5754V20.0825L5.34845 20.0527V19.5754C5.34845 19.3401 5.15767 19.1493 4.92235 19.1493H3.44375C3.22702 19.1478 3.04364 19.3091 3.01764 19.5243C2.26136 19.2753 1.53308 18.9482 0.844493 18.5485V17.023C2.70232 18.0073 5.10557 18.3781 7.66222 18.3781C14.4544 18.3781 22.2266 15.7788 23.1427 15.4677L23.147 19.209H22.9467ZM22.7379 14.7135C22.3757 14.8328 21.4852 15.1396 20.2537 15.4677C18.3473 14.5451 17.5497 12.2516 18.4724 10.3451C19.1036 9.04102 20.4158 8.20393 21.8644 8.18129C22.0324 8.17895 22.2003 8.18747 22.3672 8.20686L22.3715 8.21964C22.9979 10.0263 23.5603 12.6043 22.7379 14.7135Z" fill="#2D383F"/>
</svg>

<svg width="24" height="22" fill="none" xmlns="http://www.w3.org/2000/svg"><path d="M23.658 14.616c.746-2.336.132-4.986-.52-6.822a.427.427 0 00-.063-.2 15.95 15.95 0 00-.601-1.441.852.852 0 00.537-.784v-3.55a.852.852 0 00-.853-.852h-10.47a.426.426 0 00-.425.452c.145 2.557-.043 4.29-.584 5.514a.377.377 0 00-.03.038.426.426 0 000 .064 4.41 4.41 0 01-.826 1.206l-.039.026v.03a6.15 6.15 0 01-1.704 1.15A29.31 29.31 0 014.714 10.7l-.218.072C.512 12.093-.008 14.488.001 15.689a.409.409 0 000 .051v3.043c0 .148.078.285.204.362.977.594 2.03 1.05 3.132 1.355a.426.426 0 00.541-.426v-.098h.627v.426a.426.426 0 00.358.426c.37.06.741.107 1.103.137a.426.426 0 00.46-.427v-.537h.627v.606c0 .235.19.426.426.426.358 0 .716 0 1.1-.051a.426.426 0 00.391-.427v-.553h.627v.375a.426.426 0 00.494.426c.782-.12 1.553-.304 2.305-.55l.068-.03c2.983-1.704 4.875-.302 4.952-.243.074.058.166.09.26.09h.528a.426.426 0 00.426-.426v-.72h.61v.711c0 .235.19.426.426.426h1.372c.235 0 .426-.19.426-.426v-.712h.63v.712c0 .235.191.426.427.426h1.052c.235 0 .426-.19.426-.426v-4.593a.426.426 0 00-.34-.426zM13.547 1.828h8.59v3.528h-8.59V1.828zM8.19 10.325l.004.025c.35.284.672.599.963.942a.805.805 0 00-.115.426.814.814 0 10.886-.805 6.574 6.574 0 00-.916-1.01c.38-.217.739-.471 1.07-.759.413.388.797.805 1.15 1.249a.814.814 0 10.763-.546h-.103c-.373-.47-.78-.913-1.218-1.325a5.3 5.3 0 00.537-.8c.66.342 1.297.727 1.909 1.15a.822.822 0 10.456-.73 18.84 18.84 0 00-2.007-1.184c.464-1.235.664-2.876.57-5.113h.559v3.528c0 .47.381.852.852.852h7.985c.111.226.299.618.503 1.13h-.175a4.687 4.687 0 00-2.76 8.45c-3.448.907-8.634 1.985-12.997 1.704.805-3.217-.158-5.199-.784-6.068.975-.32 1.933-.693 2.868-1.116zm-3.725 1.359c.46.541 1.662 2.36.78 5.706a10.704 10.704 0 01-4.372-1.322 2.704 2.704 0 01-.03-.294v-.03c-.034-.907.307-2.871 3.622-4.06zm18.48 7.525v-.712a.426.426 0 00-.425-.426h-1.479a.426.426 0 00-.426.426v.712h-.524v-.712a.426.426 0 00-.426-.426h-1.47a.426.426 0 00-.427.426v.695c-.579-.362-2.697-1.415-5.7.264-.535.177-1.08.319-1.633.426v-.294a.426.426 0 00-.426-.426H8.54a.426.426 0 00-.426.426v.584h-.217v-.597a.426.426 0 00-.427-.426H5.992a.426.426 0 00-.426.426v.508l-.218-.03v-.478a.426.426 0 00-.426-.426H3.444a.426.426 0 00-.426.375 11.48 11.48 0 01-2.174-.976v-1.525c1.858.984 4.262 1.355 6.818 1.355 6.792 0 14.565-2.6 15.48-2.91l.005 3.741h-.2zm-.208-4.495c-.362.119-1.253.426-2.484.754a3.835 3.835 0 012.113-7.261l.005.013c.626 1.806 1.188 4.384.366 6.493z" fill="#2D383F"/></svg>
